src/assets/user-icon_active.svg

<svg width="20" height="20" viewBox="0 0 20 20" fill="none" xmlns="http://www.w3.org/2000/svg">
<path d="M14.5 5C14.5 7.48636 12.4864 9.5 10 9.5C7.51364 9.5 5.5 7.48636 5.5 5C5.5 2.51364 7.51364 0.5 10 0.5C12.4864 0.5 14.5 2.51364 14.5 5ZM0.5 17.5C0.5 16.8524 0.820443 16.2481 1.43228 15.6834C2.04751 15.1156 2.92348 14.6222 3.93437 14.2173C5.95696 13.407 8.39375 13 10 13C11.6062 13 14.043 13.407 16.0656 14.2173C17.0765 14.6222 17.9525 15.1156 18.5677 15.6834C19.1796 16.2481 19.5 16.8524 19.5 17.5V19.5H0.5V17.5Z" fill="#224CFF" stroke="#224CFF"/>
</svg>

<svg width="20" height="20" fill="none" xmlns="http://www.w3.org/2000/svg"><path d="M14.5 5c0 2.486-2.014 4.5-4.5 4.5A4.499 4.499 0 0 1 5.5 5C5.5 2.514 7.514.5 10 .5s4.5 2.014 4.5 4.5zM.5 17.5c0-.648.32-1.252.932-1.817.616-.567 1.491-1.06 2.502-1.466C5.957 13.407 8.394 13 10 13c1.606 0 4.043.407 6.066 1.217 1.01.405 1.887.899 2.502 1.466.612.565.932 1.17.932 1.817v2H.5v-2z" fill="#224CFF" stroke="#224CFF"/></svg>
